Numix/32/mimetypes/text-x-gtkrc.svg

<?xml version="1.0" encoding="UTF-8" standalone="no"?>
<svg
   xmlns:dc="http://purl.org/dc/elements/1.1/"
   xmlns:cc="http://creativecommons.org/ns#"
   xmlns:rdf="http://www.w3.org/1999/02/22-rdf-syntax-ns#"
   xmlns:svg="http://www.w3.org/2000/svg"
   xmlns="http://www.w3.org/2000/svg"
   xmlns:sodipodi="http://sodipodi.sourceforge.net/DTD/sodipodi-0.dtd"
   xmlns:inkscape="http://www.inkscape.org/namespaces/inkscape"
   width="32"
   height="32"
   viewBox="0 0 32 32"
   id="svg2"
   version="1.1"
   inkscape:version="0.91 r13725"
   sodipodi:docname="text-x-gtkrc.svg">
  <metadata
     id="metadata24">
    <rdf:RDF>
      <cc:Work
         rdf:about="">
        <dc:format>image/svg+xml</dc:format>
        <dc:type
           rdf:resource="http://purl.org/dc/dcmitype/StillImage" />
      </cc:Work>
    </rdf:RDF>
  </metadata>
  <defs
     id="defs22" />
  <sodipodi:namedview
     pagecolor="#ffffff"
     bordercolor="#666666"
     borderopacity="1"
     objecttolerance="10"
     gridtolerance="10"
     guidetolerance="10"
     inkscape:pageopacity="0"
     inkscape:pageshadow="2"
     inkscape:window-width="1366"
     inkscape:window-height="704"
     id="namedview20"
     showgrid="false"
     inkscape:zoom="1"
     inkscape:cx="16.252404"
     inkscape:cy="10.099066"
     inkscape:window-x="0"
     inkscape:window-y="27"
     inkscape:window-maximized="1"
     inkscape:current-layer="svg2"
     inkscape:object-nodes="true"
     showguides="true">
    <inkscape:grid
       type="xygrid"
       id="grid3012" />
  </sodipodi:namedview>
  <path
     style="fill:#dc322f;fill-opacity:1"
     d="M 5.335888,2.976e-4 C 4.648414,3.126e-4 4,0.6767885 4,1.3940318 L 4,30.606268 C 4,31.282757 4.687474,32 5.335888,32 l 21.327332,0 c 0.648414,0 1.335888,-0.717243 1.335888,-1.393732 L 28,9.0000003 l -9,-9 z"
     id="path4-1"
     inkscape:connector-curvature="0"
     sodipodi:nodetypes="ssssssccs" />
  <path
     style="fill:#000000;fill-opacity:0.19599998"
     d="M 21,9.0000003 28,16 28,9.0000003 z"
     id="path6-4"
     inkscape:connector-curvature="0"
     sodipodi:nodetypes="cccc" />
  <path
     style="fill:#ffffff;fill-opacity:0.39200003"
     d="m 19.000306,2.976e-4 8.991594,8.9997027 -7.613262,0 c -0.672951,0 -1.378332,-0.7134896 -1.378332,-1.3864402 z"
     id="path8-6"
     inkscape:connector-curvature="0"
     sodipodi:nodetypes="ccssc" />
  <g
     style="fill:#fff"
     id="g10" />
  <path
     style="opacity:1;fill:#ffffff;fill-opacity:1;stroke:none;stroke-width:3;stroke-linecap:round;stroke-linejoin:round;stroke-miterlimit:4;stroke-dasharray:none;stroke-opacity:1"
     d="m 10,12 c -0.554,0 -1,0.446 -1,1 l 0,4 c 0,0.554 0.446,1 1,1 l 12,0 c 0.554,0 1,-0.446 1,-1 l 0,-4 c 0,-0.554 -0.446,-1 -1,-1 z m 0,1 8,0 0,4 -8,0 z m 9,1 3,0 -1.5,2 z"
     id="rect4153"
     inkscape:connector-curvature="0"
     sodipodi:nodetypes="sssssssssccccccccc" />
  <path
     style="opacity:1;fill:#ffffff;fill-opacity:1;stroke:none;stroke-width:3;stroke-linecap:round;stroke-linejoin:round;stroke-miterlimit:4;stroke-dasharray:none;stroke-opacity:1"
     d="M 10.199219,20 C 9.5344187,20 9,20.534419 9,21.199219 l 0,3.601562 C 9,25.465581 9.5344187,26 10.199219,26 l 3.601562,0 C 14.465581,26 15,25.465581 15,24.800781 l 0,-3.601562 C 15,20.534419 14.465581,20 13.800781,20 Z M 13.607422,21 14.25,21.666016 11.035156,25 9.698711,23.666016 10.341289,23 l 0.693867,0.666016 z"
     id="rect4155"
     inkscape:connector-curvature="0"
     sodipodi:nodetypes="sssssssssccccccc" />
  <path
     style="opacity:1;fill:#ffffff;fill-opacity:1;stroke:none;stroke-width:3;stroke-linecap:round;stroke-linejoin:round;stroke-miterlimit:4;stroke-dasharray:none;stroke-opacity:1"
     d="m 20,20 a 3,3 0 0 0 -3,3 3,3 0 0 0 3,3 3,3 0 0 0 3,-3 3,3 0 0 0 -3,-3 z m 0,1 a 2,2 0 0 1 2,2 2,2 0 0 1 -2,2 2,2 0 0 1 -2,-2 2,2 0 0 1 2,-2 z m 0,1 a 1,1 0 0 0 -1,1 1,1 0 0 0 1,1 1,1 0 0 0 1,-1 1,1 0 0 0 -1,-1 z"
     id="path4157"
     inkscape:connector-curvature="0" />
</svg>

<svg xmlns="http://www.w3.org/2000/svg" viewBox="0 0 32 32">
 <path d="m 5.336 0 c -0.687 0 -1.336 0.676 -1.336 1.394 l 0 29.21 c 0 0.676 0.687 1.394 1.336 1.394 l 21.327 0 c 0.648 0 1.336 -0.717 1.336 -1.394 l 0.001 -21.606 l -9 -9 z" style="fill:#dc322f;fill-opacity:1"/>
 <path d="m 21 9 7 7 0 -7 z" style="fill:#000;fill-opacity:0.196"/>
 <path d="m 19 0 8.992 9 -7.613 0 c -0.673 0 -1.378 -0.713 -1.378 -1.386 z" style="fill:#fff;fill-opacity:0.392"/>
 <path d="m 10 12 c -0.554 0 -1 0.446 -1 1 l 0 4 c 0 0.554 0.446 1 1 1 l 12 0 c 0.554 0 1 -0.446 1 -1 l 0 -4 c 0 -0.554 -0.446 -1 -1 -1 z m 0 1 8 0 0 4 -8 0 z m 9 1 3 0 -1.5 2 z" style="fill:#fff;opacity:1;fill-opacity:1;stroke:none"/>
 <path d="m 10.199 20 c -0.665 0 -1.199 0.534 -1.199 1.199 l 0 3.602 c 0 0.665 0.534 1.199 1.199 1.199 l 3.602 0 c 0.665 0 1.199 -0.534 1.199 -1.199 l 0 -3.602 c 0 -0.665 -0.534 -1.199 -1.199 -1.199 m -0.193 1 0.643 0.666 -3.215 3.334 -1.336 -1.334 0.643 -0.666 l 0.694 0.666 z" style="fill:#fff;opacity:1;fill-opacity:1;stroke:none"/>
 <path d="m 20 20 a 3 3 0 0 0 -3 3 3 3 0 0 0 3 3 3 3 0 0 0 3 -3 3 3 0 0 0 -3 -3 z m 0 1 a 2 2 0 0 1 2 2 2 2 0 0 1 -2 2 2 2 0 0 1 -2 -2 2 2 0 0 1 2 -2 z m 0 1 a 1 1 0 0 0 -1 1 1 1 0 0 0 1 1 1 1 0 0 0 1 -1 1 1 0 0 0 -1 -1 z" style="fill:#fff;opacity:1;fill-opacity:1;stroke:none"/>
</svg>
